X:1
T:Fling Wide the Gates
T:Fling Wide the Gates
T:Curtis S. Kauffman
T:Curtis S. Kauffman, 1901
T:Public Domain Courtesy of the Cyber Hymnal™
T:Public Domain Courtesy of the Cyber Hymnal™
C:Curtis S. Kauffman
Z:Public Domain
Z:Courtesy of the Cyber Hymnal™
%%score ( 1 2 ) ( 3 4 )
L:1/8
Q:1/4=105
M:4/4
K:Bb
V:1 treble 
V:2 treble 
V:3 bass 
V:4 bass 
V:1
 B2 B>B B2 B,>C | D3 E F2 DF | [DB]2 [DB]2 [EA]2 [FB]2 | [Fc]6 z2 | c2 c>c c2 C>D | E3 F G2 GG | %6
w: 1.~Fling wide the gates, O Je-|ru- sa- lem, Let the|King of glo- ry|in;|Fling wide the gates, to the|King of kings, O- pen|
w: 2.~Fling wide the gates, O ye|sin- ful heart, Let the|King of glo- ry|in;|Fling wide the gates, let Him|not de- part, O- pen|
w: 3.~Fling wide the gates to the|roy- al call, Bid Him|en- ter while you|may;|Fling wide the gates, give Him|wel- come, all, As He|
 [=Ec]3 [Ed] [Ec][EB][EA][EG] | F6 z2 | B2 B>B B2 B,>C | D3 E F2 DF | [DB]2 [DB]2 [EA]2 [FB]2 | %11
w: wide and bid Him en- ter|in;|Fling wide the gates, O Je-|ru- sa- lem, To the|King in all His|
w: wide and bid Him en- ter|in;|Fling wide the gates, He is|knock- ing still, Wait- ing|in His king- ly|
w: waits ad- mis- sion here to-|day;|Fling wide the gates, let Him|en- ter in, He will|sup with thee for-|
 [Ec]4 [EG]4 | [Ge]4 [Gd]3 [Gd] | [Gc]2 [Ec]2 [^CB]2 [CA][CG] | [DF]4 [EA]4 | [DB]6 z2 || %16
w: glo- ry;|Fling wide the|gates of pearl, Let the|King come|in.|
w: splen- dor;|Fling wide the|gates, O soul, Let the|King come|in.|
w: ev- er;|Fling wide the|gates, O soul, Let the|King come|in.|
"^Refrain" B6 A>B | c6 z2 | [Fc]4 [FB]2 [Fc]2 | [Fd]6 z2 | [Fd]4 [Fd]3 [Fd] | %21
w: |||||
w: Fling wide the|gates,|fling wide the|gates,|Fling wide the|
w: |||||
 [Ee]2 [Ee]2 [B=e]2 [Be]2 | [Bf]3 [Ae] [Ad]2 [Ac]2 | B2 F2 B2 d2 | [Af]4 [FA]4 | [FB]2 F2 B2 d2 | %26
w: |||||
w: gates, And let the|King of glo- ry|in, And let the|King come|in, And let the|
w: |||||
"^riten." [Af]4 [EA]4 | [DB]6 z2 |] %28
w: ||
w: King come|in.|
w: ||
V:2
 B2 B>B B2 B,>C | D3 E F2 DF | x8 | x8 | c2 c>c c2 C>D | E3 F G2 GG | x8 | F6 x2 | B2 B>B B2 B,>C | %9
 D3 E F2 DF | x8 | x8 | x8 | x8 | x8 | x8 || (D2 D>D D2) x2 | (F2 =E>E F2) x2 | x8 | x8 | x8 | x8 | %22
 x8 | B2 F2 B2 d2 | x8 | x2 F2 B2 d2 | x8 | x8 |] %28
V:3
 B,2 B,>B, B,2 B,,>B,, | D,3 E, F,2 D,F, | [B,,F,]2 [B,,F,]2 [C,F,]2 [D,B,]2 | [F,A,]6 z2 | %4
w: ~ ~ ~ ~ ~ ~|~ ~ ~ ~ ~|~ ~ ~ ~|~|
 C2 C>C C2 C,>D, | E,3 F, G,2 G,G, | [C,G,]3 [C,G,] [C,G,][C,D][C,C][C,B,] | [F,A,]6 z2 | %8
w: ~ ~ ~ ~ ~ ~|~ ~ ~ ~ ~|~ ~ ~ ~ ~ ~|~|
 B,2 B,>B, B,2 B,,>C, | D,3 E, F,2 D,F, | [B,,F,]2 [B,,F,]2 [C,F,]2 [D,B,]2 | [E,G,]4 [E,B,]4 | %12
w: ~ ~ ~ ~ ~ ~|~ ~ ~ ~ ~|~ ~ ~ ~|~ ~|
 [C,C]4 [D,=B,]3 [D,B,] | [E,C]2 [E,G,]2 [=E,G,]2 [E,A,][E,B,] | [F,B,]2 [F,B,]2 [F,C]2 [F,C]2 | %15
w: ~ ~ ~|~ ~ ~ ~ ~|~ ~ ~ ~|
 [B,,B,]6 z2 || [B,,B,]2 [B,,B,]>[B,,B,] [B,,B,]2 z2 | [F,A,]2 [G,B,]>[G,B,] [F,A,]2 z2 | %18
w: ~|Fling wide the gates,|fling wide the gates|
 A,4 [D,B,]2 [C,A,]2 | [B,,B,]6 z2 | B,4 [_A,B,]3 [A,B,] | [G,B,]2 [G,B,]2 [_G,^C]2 [G,C]2 | %22
w: ~ ~ ~|~|~ ~ ~|~ ~ ~ ~|
 [F,D]3 [F,C] [F,F]2 [F,E]2 | [B,D]2 F,2 B,2 D2 | [F,C]2 [F,C]2 [F,E]2 [F,F]2 | [B,D]2 F,2 B,2 D2 | %26
w: ~ ~ ~ ~|~ ~ ~ ~|~ King of glory|in, ~ ~ ~|
 [F,C]2 [F,C]2 [F,C]2 [F,C]2 | [B,,B,]6 z2 |] %28
w: ~ King of glo-|ry|
V:4
 B,2 B,>B, B,2 B,,>B,, | D,3 E, F,2 D,F, | x8 | x8 | C2 C>C C2 C,>D, | E,3 F, G,2 G,G, | x8 | x8 | %8
 B,2 B,>B, B,2 B,,>C, | D,3 E, F,2 D,F, | x8 | x8 | x8 | x8 | x8 | x8 || x8 | x8 | F,2 E,2 x4 | %19
 x8 | B,4 x4 | x8 | x8 | x2 F,2 B,2 D2 | x8 | x2 F,2 B,2 D2 | x8 | x8 |] %28

